icons/passbolt.svg

<?xml version="1.0" encoding="UTF-8"?>
<svg width="256px" height="233px" viewBox="0 0 256 233" version="1.1" xmlns="http://www.w3.org/2000/svg" xmlns:xlink="http://www.w3.org/1999/xlink" preserveAspectRatio="xMidYMid">
    <g>
        <path d="M137.909029,-1.42108547e-14 L138.299882,0.00665661441 L139.385479,0.058225354 C144.798564,0.43000267 149.972107,2.50593255 154.184596,6.06768781 L155.014066,6.79978518 L155.800417,7.55667891 L248.925059,101.10948 C258.253112,110.478741 258.336122,125.115979 249.298721,134.753634 L248.668404,135.402879 L248.021048,136.024321 L151.471312,225.509442 C141.706629,234.563959 126.65745,234.838713 116.794145,226.278968 L116.114553,225.667442 L115.462423,225.035796 L61.5142946,170.873587 C60.7818881,170.138274 60.9019526,168.917458 61.7635739,168.338914 C73.1512822,160.692529 81.4377541,149.275295 85.0279509,136.172686 L85.3712573,134.856884 L85.6961343,133.473353 C85.8493708,132.820775 86.3779379,132.335554 87.020905,132.224445 L87.3027056,132.200334 L127.549722,132.200334 C128.359872,132.200334 129.033672,132.784118 129.173404,133.553966 L129.199992,133.850604 L129.199992,149.478435 C129.199992,154.222094 132.74898,158.145884 137.337533,158.681753 L137.892989,158.729631 L138.467796,158.746239 L158.270185,158.746239 C163.013844,158.746239 166.937634,155.197251 167.473503,150.608698 L167.521381,150.053242 L167.537989,149.478435 L167.537989,133.850604 C167.537989,133.040454 168.121772,132.366654 168.89162,132.226922 L169.188258,132.200334 L176.252894,132.200334 C181.084451,132.200334 185.033328,128.625645 185.564912,123.955751 L185.612136,123.390266 L185.627738,122.82549 L185.627738,112.549656 C185.627738,107.695532 182.030926,103.672904 177.379762,103.131755 L176.816725,103.083698 L176.252894,103.067772 L85.1619068,103.067772 C84.4705096,103.067772 83.8524089,102.636779 83.6133884,101.988011 C78.8618873,89.091124 69.4434357,78.2982105 57.238194,71.6262684 L56.0084501,70.9728855 L54.7717556,70.3523729 C53.8356353,69.8826736 53.5878579,68.6944707 54.1855354,67.8940896 L54.3903594,67.6667163 L119.791162,7.08249617 C124.188153,3.00527816 129.749747,0.573963824 135.555952,0.117913872 L136.661296,0.0393970067 L137.519706,0.00322737148 L137.909029,-1.42108547e-14 Z M28.6493897,93.4974121 C44.4647034,93.4974121 57.2987782,106.077272 57.2987782,121.61201 C57.2987782,137.146744 44.4647015,149.726608 28.6493897,149.726608 C12.8340773,149.726608 0,137.146744 0,121.61201 C0,106.077272 12.8340754,93.4974121 28.6493897,93.4974121 Z" fill="#D40000"></path>
    </g>
</svg>

<svg xmlns="http://www.w3.org/2000/svg" viewBox="0 0 256 232.505">
  <path fill="#d40000" d="m137.909 0 .39.007 1.086.051a25.597 25.597 0 0 1 14.8 6.01l.83.732.785.757 93.125 93.552c9.328 9.37 9.411 24.007.374 33.645l-.63.649-.648.621-96.55 89.485c-9.764 9.055-24.814 9.33-34.677.77l-.68-.612-.652-.631-53.948-54.162a1.65 1.65 0 0 1 .25-2.535c11.387-7.646 19.674-19.064 23.264-32.166l.343-1.316.325-1.384a1.65 1.65 0 0 1 1.325-1.249l.282-.024h40.247c.81 0 1.484.584 1.623 1.354l.027.297v15.627c0 4.744 3.549 8.668 8.138 9.204l.555.048.575.016h19.802c4.744 0 8.668-3.549 9.204-8.137l.047-.556.017-.575v-15.627c0-.81.584-1.484 1.354-1.624l.296-.027h7.065c4.831 0 8.78-3.574 9.312-8.244l.047-.566.016-.565V112.55c0-4.854-3.597-8.877-8.248-9.418l-.563-.048-.564-.016H85.162a1.65 1.65 0 0 1-1.549-1.08c-4.751-12.897-14.17-23.69-26.375-30.362l-1.23-.653-1.236-.62a1.651 1.651 0 0 1-.586-2.459l.204-.227 65.401-60.585c4.397-4.077 9.959-6.508 15.765-6.964l1.105-.079.859-.036zM28.649 93.497c15.816 0 28.65 12.58 28.65 28.115 0 15.535-12.834 28.115-28.65 28.115C12.834 149.727 0 137.147 0 121.612c0-15.535 12.834-28.115 28.65-28.115z"/>
</svg>
